teeny/outline/zoom-in.svg

<svg width="15" height="15" viewBox="0 0 15 15" fill="none" xmlns="http://www.w3.org/2000/svg">
<path d="M14.5 14.5L10.5 10.5M6.5 4V9M4 6.5H9M6.5 12.5C3.18629 12.5 0.5 9.81371 0.5 6.5C0.5 3.18629 3.18629 0.5 6.5 0.5C9.81371 0.5 12.5 3.18629 12.5 6.5C12.5 9.81371 9.81371 12.5 6.5 12.5Z" stroke="black"/>
</svg>

<svg viewBox="0 0 15 15" xmlns="http://www.w3.org/2000/svg"><path fill="none" stroke="#000" d="M14.5 14.5l-4-4M6.5 4v5M4 6.5h5m-2.5 6c-3.32 0-6-2.69-6-6 0-3.32 2.68-6 6-6 3.31 0 6 2.68 6 6 0 3.31-2.69 6-6 6Z"/></svg>
